X:1
T:Title
%%score { 1 | 2 }
L:1/8
M:6/4
K:E
V:1 treble nm="Grand Piano"
V:2 bass 
V:1
 z6 z4[Q:1/4=126] EF | G4 G2 G4 G2 | [GB]4 [GB]2 G4 E2 | [DF]4 [DF]2 [EG]4 [FA]2 | %4
[M:5/4] G2- G2- G6 |[M:1/4] EF |[M:6/4] G4 G2 G4 G2 | [Ac]4 [GB]2 G4 E2 | F4 F2 [EG]4 [EF]2 | %9
[M:9/8] [DB]8- [DB] |[M:3/4] [EB]6 |[M:6/4] [Ec]2 [Ec]2 [Ec]2 d4 c2 | B3 B B2 G4 B2 | %13
 B4 B2 [DB]4 [DA]2 |[M:5/4] [EG]2- [EG]2- [EG]6 |[M:1/4] [GB]2 |[M:7/4] c2 c2 c2 e6 c2 | %17
[M:6/4] [GB]3 [GB] [GB]2 [B,EG]4 [G,B,E]2 | [A,CF]4 [CFA]2 [B,EG]4 [A,DF]2 | %19
[M:5/4] [G,B,E]2- [G,B,E]2- [G,B,E]6 |] %20
V:2
 z6 z4 [E,G,][E,A,E] | [E,B,E]4 [E,B,E]2 [E,B,E]4 [E,B,E]2 | [E,E]4 [E,E]2 [E,B,E]4 [E,G,]2 | %3
 [B,,B,]4 [B,,B,]2 [B,,B,]4 [B,,B,]2 |[M:5/4] [E,B,E]2- [E,B,E]2- [E,B,E]6 |[M:1/4] [E,G,][E,A,E] | %6
[M:6/4] [E,B,E]4 [E,B,E]2 [E,B,E]4 [E,B,E]2 | [E,E]4 [E,E]2 [E,B,E]4 [E,G,B,]2 | %8
 [D,B,]4 [D,B,]2 [C,^A,]4 [C,A,]2 |[M:9/8] [B,,F,]8- [B,,F,] |[M:3/4] [E,G,]6 | %11
[M:6/4] [A,,A,]2 [A,,A,]2 [A,,A,]2 [A,CE]4 [A,E]2 | [E,G,E]3 [E,G,E] [E,G,E]2 [E,B,E]4 [G,B,E]2 | %13
 [F,B,D]4 [F,B,D]2 [B,,F,]4 [B,,B,]2 |[M:5/4] [E,B,]2- [E,B,]2- [E,B,]6 |[M:1/4] [E,E]2 | %16
[M:7/4][K:treble] [A,EA]2 [A,EA]2 [A,EA]2 [A,CA]6 [A,EA]2 | %17
[M:6/4][K:bass] [E,E]3 [E,E] [E,E]2 E,4 E,2 | A,,4 A,,2 B,,4 B,,2 |[M:5/4] E,2- E,2- E,6 |] %20

